X: 15
T: Eavesdropper, The
Z: Nadeau
S: https://thesession.org/tunes/389#setting51918
R: jig
M: 6/8
L: 1/8
K: Gmaj
|:"G"DBB BAG|Bdd dBG|"C"cde dBA|"D"BAA AGE|
"G"DBB BAG|Bdd dBG|"C"cde "G"dBA|1"D"AGF "G"G2E:|2"D"AGF "G"GBd||
|:"G"g2g "D"afd|"C"efg "G"dBG|"C"cde "G"dBG|"G"BAA "D"ABd|
"G"gab "D"afd|"C"efg "G"dBG|"C"cde "G"dBA|1"D"AGF "G"GBd:|2"D"AGF "G"G2E||

